X:870
T: Mrs.Murphy's
S: B.Breathnach: "Ceol Rince na hEireann" II/218 (gan ainm)
Z: B.Black
L: 1/8
M: 4/4
R: reel
K: G
g2 ge dBAB|G2 GB AGED|G2 GB d2 de|gedB AGED|
g2 ge dBAB|G2 GB AGED|G2 GB d2 de|gedB AGED ||
g2 gb a2 (3aba|g2 gb agef|g2 gb a2 ba|gedB AGED|
g2 gb a2 (3aba|g2 gb ageg|gbab gaba|gedB AGED ||
